X:1
T:Title
%%score { ( 1 3 ) | 2 }
L:1/8
M:4/4
K:Bb
V:1 treble nm="Grand Piano"
V:3 treble 
V:2 bass 
V:1
 z4 z2 z[Q:1/4=85] [DF] | [DF][DF][DF][DF] [EG] [DF]2 [DB] | [Fd][Ec][DB][EG] [DF]3 F | AAAA BBBB | %4
 cc[=Ec][Ed] z[K:bass] E,D,[K:treble][F,A,_EF] | [DF][DF][DF][DF] [EG][DF]D[DF] | %6
 [Fd][Fc][FB][DF] G3 G | cBAG [DF][DF][FB][Ae] |[M:7/8] [Fd]2 [Ec]2 [DB]3 |[M:1/8] B | %10
[M:4/4] [Ge][Ge][Ge][Ge] [Ge] [GB]2 [EG] | [DF][_D=E][=DF][DB] [Fd]3 [Fd] | cccc ccd[Fd] | %13
 [Fc][FA][=EB][EG] F3 F | [DF][DF][DF][DF] [EG] [DF]2 [DB] | [Fd][Ec][DB][DF] [FA] G2 G | %16
 cBAG [DF][DF][FB][Ge] |[M:7/8] [Fd]2 [Ec]2 [DB]3 |] %18
V:2
 z4 z2 z [B,,B,] | [B,,B,][B,,B,][B,,B,][B,,B,] [B,,B,] [B,,B,]2 [B,,F,] | %2
 [B,,B,][B,,B,][B,,F,][B,,B,] [B,,B,]3 [D,B,] | %3
 [F,CE][F,CE][F,CE][F,CE] [F,DF][F,DF][F,DF][F,B,D] | [F,A,F][F,A,F][C,B,][C,B,] F,,E,,D,,[C,,C,] | %5
 [B,,B,][B,,B,][B,,B,][B,,B,] [B,,B,][B,,B,][B,,F,][B,,B,] | %6
 [B,,B,][C,A,][D,B,][B,,B,] [E,B,E]3 [E,B,E] | %7
 [E,G,E][E,G,E][E,A,E][E,B,E] [B,,B,][B,,B,][D,B,][E,B,] |[M:7/8] [F,B,]2 [F,A,]2 [B,,B,]3 | %9
[M:1/8] [B,_A] |[M:4/4] [E,B,][E,B,][E,B,][E,B,] [E,B,] [E,E]2 [E,B,] | %11
 [B,,B,][B,,B,][B,,B,][B,,F,] [B,,B,]3 [B,,B,] | %12
 [F,A,F][F,A,F][G,B,=E][G,B,E] [A,CF][A,CF][B,F][K:bass][B,,B,] | %13
 [C,A,][C,C][C,G,][C,B,] [F,A,]3 [F,A,E] | [B,,B,][B,,B,][B,,B,][B,,B,] [B,,B,] [B,,B,]2 [B,,F,] | %15
 [B,,B,][B,,B,][B,,F,][B,,B,] [E,B,] [E,B,E]2 [E,B,E] | %16
 [E,G,E][E,G,E][E,A,E][E,B,E] [B,,B,][B,,B,][D,B,][E,B,] |[M:7/8] [F,B,]2 [F,A,]2 [B,,B,]3 |] %18
V:3
 x8 | x8 | x8 | x8 | z4 [F,A,Fc]4[K:bass][K:treble] | x8 | x8 | x8 |[M:7/8] x7 |[M:1/8] x | %10
[M:4/4] x8 | x8 | x8 | x8 | x8 | x8 | x8 |[M:7/8] x7 |] %18

